X: 23497
T: Liam An Bhradáin
R: slip jig
M: 9/8
K: Ddorian
|:D2A A2G ABc|D2A A2G E2G|D2A A2G ABc|B2G F2D E2F|
D2A A2G ABc|B2A B2c d2e|c2A G2E F2G|1 A2c G2A E2F:|2 A2c G2A E2G||
A2d d2A def|g2a e2a g2a|A2d f2d e2d|c2A G2E F2G|
A2d d2A def|e2d c2A G2A|D2E F2D G2A|A,2D E2F D2d|
A2d d2A def|g2a e2a g2a|A2d f2d e2d|c2A G2E F2G|
A2d d2A def|g2a b2a g3|a2g e2f c2d|A2G E2F D2A,||

